!!!COM: Anonymous
!!!CDT: [?]
!!!OTL@@LAT: Amor aeternae
!!!TXO: Latin
!!!ODT: 
!!!GTL: Hymnbook E
!!!ARL: Opactwo św. Wojciecha, Staniątki 
!!!voices:	3
**kern	**kern	**text	**text	**kern	**text	**text
*staff3	*staff2	*staff2	*staff2	*staff1	*staff1	*staff1
*I"Basso	*I"Canto II	*	*	*I"Canto I	*	*
=1-	=1-	=1-	=1-	=1-	=1-	=1-
*clefF4	*clefG2	*	*	*clefG2	*	*
*k[f#c#]	*k[f#c#]	*	*	*k[f#c#]	*	*
*M3/2	*M3/2	*	*	*M3/2	*	*
2.AA	2.cc#	A-	Tu	2.ee	A-	Tu
4BB	4b	-mor	nos	4dd	-mor	nos
4C#	2a	ae-	hic	2cc#	ae-	hic
4D	.	.	.	.	.	.
=2	=2	=2	=2	=2	=2	=2
1E	1g#	-ter-	pas-	1b	-ter-	pas-
2E	2e	-nae	-cis	2g#	-nae	-cis
=3	=3	=3	=3	=3	=3	=3
2A	2a	to-	di-	2cc#	to-	di-
2E	2g#	-tus	-vi-	2b	-tus	-vi-
2F#	2f#	be-	-nis	4a	be-	-nis
.	.	.	.	4b	.	.
=4	=4	=4	=4	=4	=4	=4
2.E	1e	-ni-	ex-	1g#	-ni-	ex-
4D	.	.	.	.	.	.
2C#	2e	-gne	-cis	2e	-gne	-cis
=5	=5	=5	=5	=5	=5	=5
2D	2r	.	.	2r	.	.
2d	2d	O	.	2f#	O	.
2B	2e	dul-	.	2g#	dul-	.
=6	=6	=6	=6	=6	=6	=6
2.A	2.f#	-cis-	.	2.a	-cis-	.
4G#	4g#	-si-	.	4b	-si-	.
4F#	2a	-me	.	2cc#	-me	.
4E	.	.	.	.	.	.
=7	=7	=7	=7	=7	=7	=7
2D	2a	mi	.	2b	mi	.
2E	2.a	Ie-	.	1b	Ie-	.
2EE	.	.	.	.	.	.
.	4g#	.	.	.	.	.
=8	=8	=8	=8	=8	=8	=8
1.AA	1.a	-su	.	1.a	-su	.
=9:|!|:	=9:|!|:	=9:|!|:	=9:|!|:	=9:|!|:	=9:|!|:	=9:|!|:
2E	2g#	Tu	Nos	2b	Tu	Nos
2E	2g#	e-	car-	2b	e-	car-
2E	2g#	-su-	-ne	2b	-su-	-ne
=10	=10	=10	=10	=10	=10	=10
2AA	1a	-ri-	ci-	1cc#	-ri-	ci-
2C#	.	.	.	.	.	.
2E	2g#i	-mus	-bus	2b	-mus	-bus
=11	=11	=11	=11	=11	=11	=11
2AA	2cc#	te-	san-	2ee	te-	san-
2D	2f#	-que	-gui-	2a	-que	-gui-
2BB	2g#	si-	-nis	2b	si-	-nis
=12	=12	=12	=12	=12	=12	=12
4AA	1a	-ti-	po-	1cc#	-ti-	po-
4BB	.	.	.	.	.	.
4C#	.	.	.	.	.	.
4D	.	.	.	.	.	.
2E	2g#	-mus	-tus	2b	-mus	-tus
=13	=13	=13	=13	=13	=13	=13
2BB	2b	Mel-	.	2dd	Mel-	.
2BB	2b	-li-	.	2dd	-li-	.
4C#	2a	-te	.	2cc#	-te	.
4D#	.	.	.	.	.	.
=14	=14	=14	=14	=14	=14	=14
2E	1g#	Ie-	.	1b	Ie-	.
2D	.	.	.	.	.	.
2C#	2a	-su	.	2cc#	-su	.
=15	=15	=15	=15	=15	=15	=15
2.D	2.f#	o	.	2.a	o	.
4D	4g#	pi-	.	4b	pi-	.
2AA	2a	-e	.	2cc#	-e	.
=16	=16	=16	=16	=16	=16	=16
1E	1a	Ie-	.	1.b	Ie-	.
2EE	2g#	.	.	.	.	.
=17	=17	=17	=17	=17	=17	=17
1.AA	1.a	-su.	.	1.a	-su.	.
==:|!	==:|!	==:|!	==:|!	==:|!	==:|!	==:|!
*-	*-	*-	*-	*-	*-	*-
!!!GTL: Hymnbook E
!!!EFL: 76/117
!!!YEM: Creative Commons CC/BY/NC/SA 4.0
!!!ENC: Marcin Konik
!!!END: 
!!!EED: Marcin Konik
!!!EEV: 
!!!ONB: Translated from MusicXML and edited by Marcin Konik
!!!CharacterEncoding: utf-8
!!!RDF**kern: l=long note in original notation
!!!RDF**kern: i=editorial accidental
!!muse2ps: z14jc180F
